!!!OTL: Since Love Can Enter an Iron Door
!!!ONM: 84.
**kern
*clefG2
*k[b-e-]
*B-:
*M3/4
*MM92
{8d
8c
8B-
=1
8d
4f
8B-
8d
8f
=2
8b-
4b-}
{8g
8f
8d
=3
4.B-
8c
8B-
8A
=4
4B-
8r}
{16B-
16B-
8f
8B-
=5
8f
4f
16f
16f
8g
8a
=6
8b-
4b-}
{8f
8g
8f
=7
4.B-
8c
8B-
8A
=8
4.B-}
==
*-
!!!CNT: Folksongs of Maritime Canada
!!!MRD: 1928///-1932///
!!!OCL: Helen Creighton
!!!YOR: Songs and Ballads from Nova Scotia
!!!PPR: J.M. Dent & Sons, Limited
!!!PPP: Toronto, Canada
!!!PDT: 1932///
!!!reprint: Dover Publications, 1992: ISBN 0-486-21703-5
!!!ENC1: Craig Stuart Sapp (music and bibliographic data)                       
!!!ENC2: Marcus Pearce (phrase markings and key designations)                   
!!!ENC3: Darrell Conklin (phrase markings and key designations)   
!!!END: 2002/04/10/
!!!EEV: 2004/06/05
!!!MPN: Mr. William Faulkner
!!!PPG: 181
!!!EFL: 85/152
!!!ARE: Canada; Nova Scotia
!!!verses: 14
!!!VTS: 707367158
